X:2498
T:Polska från Uppland
T:Svenska Folkdansar H3 nr 10
O:Uppland
B:Traditioner av Svenska Folkdansar Häfte 3, nr 10
N:Se även [[Musik/2284|+]]
R:Polska
Z:Nils L
U:w=wedge
M:3/4
L:1/16
K:Am
(e2>c2) A2B2 c2A2 | (cBA^G) A2B2 c2A2 | (e2>c2) A2B2 c2A2 | (cBA^G) A4 A,4 ::
(c2>d2) e2e2 e2c2 | wd2we2 f4 (d2c2) | (B2>c2) d2d2 d2B2 | c2d2 [ec]4 [e^G]4  !D.C.!:|
(:musicend:)
(:music:)
